icon-themes/sifr_svg/cmd/32/selectall.svg

<svg viewBox="0 0 32 32" xmlns="http://www.w3.org/2000/svg"><path d="m6 2c-2.216 0-4 1.784-4 4v20c0 2.216 1.784 4 4 4h14.199219c-.0963-.2332-.165976-.42967-.259766-.6875l-2.308594-6.3125h-11.630859c-1.35232.0191-1.35232-2.01913 0-2h10.898438l-.458985-1.253906c-.10488-.26329-.19228-.479994-.275391-.746094h-10.164062c-1.35232.0191-1.35232-2.01913 0-2h10.369141c.0236-.0165.0458-.031787.0625-.054688.20741-.33332.508314-.598228.865234-.761718.0192-.008.031781-.037922.050781-.044922.042-.0157.055803-.000942.095703-.013672.20413-.0753.419199-.117047.636719-.123047.0664-.002.132919-.001094.199219.003906.57595.0433.716212.158963.888672.226563.16647.0653.308765.125943.478515.189453l.017578.005859 1.585938.572266h4.75c1.05354-.0148 1.410754 1.399429.476562 1.886719l2.828126 1.019531-.070313-.023438c.27982.089401.502875.165128.765625.273438v-14.15625c0-2.216-1.784-4-4-4zm0 3h20c1.35232-.0191 1.35232 2.01913 0 2h-20c-1.35232.0191-1.35232-2.01913 0-2zm0 4h20c1.35232-.0191 1.35232 2.01913 0 2h-20c-1.35232.0191-1.35232-2.01913 0-2zm0 4h12c1.35232-.0191 1.35232 2.01913 0 2h-12c-1.35232.0191-1.35232-2.01913 0-2zm12.130859 5c-.23782-.0179-.131644.258629.166016 1.005859l3.521484 9.619141c.44513 1.22324.34904 1.119557.90625-.033203l1.47461-2.882813 3.990234 3.990235c.19417.19408.441981.300781.738281.300781.59259 0 1.072266-.479916 1.072266-1.072266 0-.29618-.108554-.544191-.302734-.738281l-3.990235-3.988281 2.917969-1.47461c1.09799-.548719 1.25447-.536688 0-.9375l-9.65625-3.486328c-.43781-.16262-.695191-.292004-.837891-.302734zm-12.130859 7h7c1.35232-.0191 1.35232 2.01913 0 2h-7c-1.35232.0191-1.35232-2.01913 0-2z" fill="#555753"/></svg>

<svg xmlns="http://www.w3.org/2000/svg" viewBox="0 0 32 32">
  <path
     style="fill:#555753"
     d="M 6 2 C 3.784 2 2 3.784 2 6 L 2 26 C 2 28.216 3.784 30 6 30 L 20.199219 30 C 20.102919 29.7668 20.033243 29.57033 19.939453 29.3125 L 17.630859 23 L 6 23 C 4.64768 23.0191 4.64768 20.98087 6 21 L 16.898438 21 L 16.439453 19.746094 C 16.334573 19.482804 16.247173 19.2661 16.164062 19 L 6 19 C 4.64768 19.0191 4.64768 16.98087 6 17 L 16.369141 17 C 16.392741 16.9835 16.414941 16.968213 16.431641 16.945312 C 16.639051 16.611992 16.939955 16.347084 17.296875 16.183594 C 17.316075 16.175594 17.328656 16.145672 17.347656 16.138672 C 17.389656 16.122972 17.403459 16.13773 17.443359 16.125 C 17.647489 16.0497 17.862558 16.007953 18.080078 16.001953 C 18.146478 15.999953 18.212997 16.000859 18.279297 16.005859 C 18.855247 16.049159 18.995509 16.164822 19.167969 16.232422 C 19.334439 16.297722 19.476734 16.358365 19.646484 16.421875 L 19.664062 16.427734 L 21.25 17 L 26 17 C 27.05354 16.9852 27.410754 18.399429 26.476562 18.886719 L 29.304688 19.90625 L 29.234375 19.882812 C 29.514195 19.972213 29.73725 20.04794 30 20.15625 L 30 6 C 30 3.784 28.216 2 26 2 L 6 2 z M 6 5 L 26 5 C 27.35232 4.9809 27.35232 7.01913 26 7 L 6 7 C 4.64768 7.0191 4.64768 4.98087 6 5 z M 6 9 L 26 9 C 27.35232 8.9809 27.35232 11.01913 26 11 L 6 11 C 4.64768 11.0191 4.64768 8.98087 6 9 z M 6 13 L 18 13 C 19.35232 12.9809 19.35232 15.01913 18 15 L 6 15 C 4.64768 15.0191 4.64768 12.98087 6 13 z M 18.130859 18 C 17.893039 17.9821 17.999215 18.258629 18.296875 19.005859 L 21.818359 28.625 C 22.263489 29.84824 22.167399 29.744557 22.724609 28.591797 L 24.199219 25.708984 L 28.189453 29.699219 C 28.383623 29.893299 28.631434 30 28.927734 30 C 29.520324 30 30 29.520084 30 28.927734 C 30 28.631554 29.891446 28.383543 29.697266 28.189453 L 25.707031 24.201172 L 28.625 22.726562 C 29.72299 22.177843 29.87947 22.189874 28.625 21.789062 L 18.96875 18.302734 C 18.53094 18.140114 18.273559 18.01073 18.130859 18 z M 6 25 L 13 25 C 14.35232 24.9809 14.35232 27.01913 13 27 L 6 27 C 4.64768 27.0191 4.64768 24.98087 6 25 z "
     />
</svg>
